X:1
T:[ID 3-67]
T:[ID 3-67]
T:Bezeichnung standardisiert: Allegro Allegro
T:Urheber unbekannt Datum in der hier transkribierten schriftlichen Quelle: 1767
C:Urheber unbekannt
C:Datum in der hier transkribierten schriftlichen Quelle: 1767
%%score 1 2
L:1/8
M:2/4
K:D
V:1 treble nm="Primo"
V:2 treble nm="Secondo"
V:1
 ad'fa | ge'eg | fadf | ea A2 | ad'fa | ge'eg | fad'c' | d'2 d2 :: fadf | eace | df/e/ dc | c2 B2 | %12
 eef^g | a^g/f/ ed | c2 B2 | A2 z2 | dfa=c' | bd' g2 | e^gbd' | c'e' a2 | gbag | fa/c'/ d'g | %22
 f2 Te2 | d4 :| %24
V:2
 !fermata!f2 d2 | e2 c2 | d2 A2 | Ad/f/ a/g/f/e/ | f2 d2 | e2 c2 | dfge | f2 f2 :: d2 a2 | c2 a2 | %10
 Bd/c/ BA | A2 ^G2 | ccde | fe/d/ cB | A2 ^G2 | Ad/f/ a/g/f/e/ | fdfa | gb e2 | ^gegb | ac' f2 | %20
 egfe | df/a/ d'/c'/f/d/ | fdaA | F4 :| %24

